X:1
T:Habanera (Carmen)
C:Georges Bizet
M:2/4
L:1/8
Q:1/4=96
K:Dm
d3/2 ^c/ d A | G2 ^F2 | G3/2 A/ =B c | d4 |
d3/2 ^c/ d A | G ^F G A | F3/2 E/ F G | A4 |
d3/2 ^c/ d A | G2 ^F2 | A3/2 G/ F E | D4 |
d3/2 ^c/ d d | ^c =B A G | F3/2 E/ F A | D4 |]
